X: 11
M: C|
L: 1/8
K: G
(3(GFE) |\
|: (3(def) |\
gfga gbag | fefg fagf | edef gfed | B2ef e2 (3(gfe) |
dBGB d2cB | cdef g2fe | dcBA BAGA | B2G2 G2 H:|

